dist/img/header/user.svg

<svg width="31" height="32" viewBox="0 0 31 32" fill="none" xmlns="http://www.w3.org/2000/svg">
<path d="M26.1519 20.9236C24.4833 19.2206 22.4973 17.9599 20.3305 17.1967C22.6512 15.5653 24.1759 12.8349 24.1759 9.74753C24.1759 4.76315 20.2029 0.708008 15.3194 0.708008C10.4359 0.708008 6.46287 4.76315 6.46287 9.74753C6.46287 12.8349 7.98757 15.5653 10.3084 17.1967C8.14154 17.9599 6.15553 19.2206 4.48697 20.9236C1.59352 23.8769 0 27.8034 0 31.9799H2.39366C2.39366 24.7053 8.19211 18.7871 15.3194 18.7871C22.4467 18.7871 28.2451 24.7053 28.2451 31.9799H30.6388C30.6388 27.8034 29.0453 23.8769 26.1519 20.9236ZM15.3194 16.3439C11.7558 16.3439 8.85653 13.3848 8.85653 9.74753C8.85653 6.11022 11.7558 3.15112 15.3194 3.15112C18.883 3.15112 21.7823 6.11022 21.7823 9.74753C21.7823 13.3848 18.883 16.3439 15.3194 16.3439Z" fill="#333333"/>
</svg>

<svg width="31" height="32" fill="none" xmlns="http://www.w3.org/2000/svg"><path d="M26.152 20.924a15.22 15.22 0 00-5.822-3.727 9.09 9.09 0 003.846-7.45c0-4.984-3.973-9.039-8.857-9.039-4.883 0-8.856 4.055-8.856 9.04a9.09 9.09 0 003.845 7.449 15.22 15.22 0 00-5.821 3.727C1.594 23.877 0 27.804 0 31.98h2.394c0-7.275 5.798-13.193 12.925-13.193 7.128 0 12.926 5.918 12.926 13.193h2.394c0-4.177-1.594-8.103-4.487-11.056zm-10.833-4.58c-3.563 0-6.462-2.96-6.462-6.596 0-3.638 2.899-6.597 6.462-6.597 3.564 0 6.463 2.96 6.463 6.597 0 3.637-2.899 6.596-6.463 6.596z" fill="#333"/></svg>
